X:1
T:Title
%%score { ( 1 4 ) | ( 2 3 5 ) }
L:1/8
M:3/4
K:F
V:1 treble nm="Grand Piano"
V:4 treble 
V:2 bass 
V:3 bass 
V:5 bass 
V:1
 z6[Q:1/4=100] | [CFA]2 [FA]2 [CFc]2 | A2 z2 z2 | [CFA]2 [FA]2 [CFc]2 | F2 z2 z2 | %5
 [CA]2 [^CG]2 [=CF]2 | [CA]2 [^CG]2 [=CF]2 | =B,2- [B,-E]2 [B,F]2 | G4 z2 | [DGB]2 [GB]2 [DGd]2 | %10
 B2 z2 z2 | [DGB]2 [GB]2 [DGd]2 | B2 z2 z2 | [DGB]2 [CEA]2 [CEG]2 | [CFc]2 [CEA]2 [A,F]2 | %15
 [DEB]2 [CEA]2 [B,EG]2 |[M:2/4] [F,A,CF]4 |] %17
V:2
 z2 z2 C2 | z2 C2 A,,2 | z2[K:treble] G2 C2 | z2 C2 A,,2 | z2 E2 C2 | F,,2 B,,2 A,,2 | %6
 F,,2 B,,2 A,,2 | z2 G,2 z2 | z2 E,2 D2 | z2 D2 B,,2 | z2[K:treble] A2 D2 | z2 D2 B,,2 | %12
 z2[K:treble] A2 D2 | G,,2 C,2 B,,2 | A,,2 D,2 D,2 | z2 C,4 |[M:2/4] F,,4 |] %17
V:3
 x6 | F,,4 z2 | C,4[K:treble] z2 | F,,4 z2 | C,4 z2 | x6 | x6 | z2 z2 F,2- | F,2 z2 z2 | G,,4 z2 | %10
 D,4[K:treble] z2 | G,,4 z2 | D,4[K:treble] z2 | x6 | x6 | G,,2 z2 C,,2 |[M:2/4] x4 |] %17
V:4
 x6 | x6 | [B,E]4 z2 | x6 | [B,G]4 z2 | x6 | x6 | [F,D]2 z2 z2 | x6 | x6 | [C^F]4 z2 | x6 | %12
 [C^F]4 z2 | x6 | x6 | x6 |[M:2/4] x4 |] %17
V:5
 x6 | x6 | x2[K:treble] x4 | x6 | x6 | x6 | x6 | G,,6 | B,4 z2 | x6 | x2[K:treble] x4 | x6 | %12
 x2[K:treble] x4 | x6 | x6 | x6 |[M:2/4] x4 |] %17

